X: 67
T: Munlochy Bridge
T: Strathspey, G
L: 1/16
M: C
K: G
|: g3| e3d1 B3A1 B1G3 G3B1| d3e1 d1B3 d4 d1g3| e3d1 B3A1 B1G3 G3e1| g3e1  f1d3 e4e1:| 
|: g3| d3e1 g3a1 b3g1 a1b3| d3e1 d1B3 d4 d1g3| [1 d3e1 g3a1 b3g1 a1b3| a3b1 a1g3 e4e1:|
[2 e3d1 B3A1 B1G3 G3e1| g3e1 f1d3 e4e1|]
D: Wendy MacIsaac, That's What You Get, WMT004 (given as Sir Harry's Welcome Home)
D: Morgan MacQuarrie, Kenloch Ceilidh
